src/build/icons/LineIcons/plus.svg

<svg width="22" height="22" version="1.1" viewBox="1 -1 20 20" xmlns="http://www.w3.org/2000/svg">
 <g fill="none" fill-rule="evenodd">
  <g transform="translate(-469,-1094)" fill="#f00">
   <path d="m486 1102h-5v-5c0-0.55-0.447-1-1-1s-1 0.45-1 1v5h-5c-0.553 0-1 0.45-1 1s0.447 1 1 1h5v5c0 0.55 0.447 1 1 1s1-0.45 1-1v-5h5c0.553 0 1-0.45 1-1s-0.447-1-1-1z"/>
  </g>
 </g>
</svg>

<svg width="22px" height="22px" viewBox="0 0 22 22" version="1.1" xmlns="http://www.w3.org/2000/svg" xmlns:xlink="http://www.w3.org/1999/xlink">
    <defs>
        <filter x="-1.7%" y="-0.9%" width="103.4%" height="101.8%" filterUnits="objectBoundingBox" id="filter-1">
            <feOffset dx="0" dy="2" in="SourceAlpha" result="shadowOffsetOuter1"></feOffset>
            <feGaussianBlur stdDeviation="2" in="shadowOffsetOuter1" result="shadowBlurOuter1"></feGaussianBlur>
            <feColorMatrix values="0 0 0 0 0   0 0 0 0 0   0 0 0 0 0  0 0 0 0.5 0" type="matrix" in="shadowBlurOuter1" result="shadowMatrixOuter1"></feColorMatrix>
            <feMerge>
                <feMergeNode in="shadowMatrixOuter1"></feMergeNode>
                <feMergeNode in="SourceGraphic"></feMergeNode>
            </feMerge>
        </filter>
    </defs>
    <g id="Page-1" stroke="none" stroke-width="1" fill="none" fill-rule="evenodd">
        <g id="Icon-Set" filter="url(#filter-1)" transform="translate(-469.000000, -1094.000000)" fill="#FFFFFE">
            <path d="M486,1102 L481,1102 L481,1097 C481,1096.45 480.553,1096 480,1096 C479.447,1096 479,1096.45 479,1097 L479,1102 L474,1102 C473.447,1102 473,1102.45 473,1103 C473,1103.55 473.447,1104 474,1104 L479,1104 L479,1109 C479,1109.55 479.447,1110 480,1110 C480.553,1110 481,1109.55 481,1109 L481,1104 L486,1104 C486.553,1104 487,1103.55 487,1103 C487,1102.45 486.553,1102 486,1102 L486,1102 Z" id="Fill-25"></path>
        </g>
    </g>
</svg>
